X:1
T:Quanto piu m'arde
T:Quanto piu m'arde
T:Girolamo Scotto
T:Source : Madrigali a tre voci---Venetia---G.Scotto---1541. Editor : André Vierendeels (09/08/16)
T:Notes : Original clefs : C3, F3, F4 Editorial accidentals above the sraff Original note values have been halved "Septimi toni" 
T:-natural
T:©
T:©
T:©
T:©
T:©
T:©
T:©
C:Girolamo Scotto
Z:©
%%score [ 1 2 3 ]
L:1/8
Q:1/4=100
M:2/2
K:F
V:1 treble-8 nm="Tenor 1" snm="T 1"
V:2 treble-8 nm="Tenor 2" snm="T 2"
V:3 bass nm="Bass" snm="B"
V:1
 c4 c2 c2 | d6 _e2 | d2 g2 f2 e2- | edef g2 e2 | f4 d4- | d2 g4 f2 | g4 z2 d2 | d2 d2 f4- | %8
w: Quan- to piu|m'ar- *|* * de, quan-|* * * * * to|piu m'ar-||de,- et|piu s'ac- cend'|
 f2 g2 a4 | a2 d2 d2 d2 | f4 c4 | z2 d2 e2 f2 | g2 c2 c2 c2 | d2 e2 f4 | e2 g2 f2 e2 | %15
w: _ il fo-|co, don- na per|vo- i,|don- na per|voi, piu mi gra-|diss' a- mo-|re, a- mo- *|
 f2 d2 e2 g2 | g2 f2 g2 g2 | z2 d2 d2 d2 | _e2 d3 c c2- | c2 B2 c3 B | A2 G2 A2 d2 | d2 d2 f4 | %22
w: re, ne me do-|glia'il do- lo- re,|che dol- ce|me'l mo- * rir|_ la pen' un|gio- * co, che|dol- ce me'l|
 _e4 d4- | d2 c2 c2 d2- |"^-natural" dc c4 B2 | c8 || z8 | c6 G2 | A2 c4 B2 | c4 A2 A2 | %30
w: mo- rir|_ la pen' un-|* * gio- *|co.||Non e|giac- cio'il mio|giac- cio ne|
 G2 B2 A2 A2 | GABc d4 | z2 d2 d4 | _e4 d4- | d2 A2 A2 A2 | BABc de f2- | f2 e3 d d2- | d2 c2 d4 | %38
w: la fiam- ma co-|* * * * ce,|nel do-|lor du-|* ol ne la|mor- * * * * * te|_ m'an- * ci-|* * de,|
 z2 G2 A4 | c4 c2 A2 | d4 c2 e2 | f6 c2 | d2 f4 e2 | f8 | z2 d2 d2 B2 | G2 A2 B4 | A2 f4 ed | %47
w: tant' e|so- a- v'il|lac- cio, et|si dol-|ce mi co-|ce,|che non an-|ge la vi-|ta an- * *|
 c2 d4 cB | A2 B3 A/G/ A2 | B2 c2 c2 F2 | c2 B3 c de | f2 c2 c2 c2 | B2 G2 A2 G2 | G2 A2 B4 | %54
w: zi gli'ar- * *|ri- * * * *|* de, on- de|ne se- g'a- * *|mor, on- de ne|se- g'a- mor, che|me ne sfi-|
 A2 d2 d2 d2 | c4 B2 B2 | c2 d2 G2 c2- | c2 BA G2 c2 | d2 d2 f3 e | d2 c2 B2 d2 | d2 d2 _e2 d2- | %61
w: de, ma che m'a-|gia- cia, ma|che m'a- gia- *|* * * cia, in|fiam- me'an- ci- *|d'e strin- ga, et|nel mio cor de|
 G2 c4 B2 | c3 B A2 G2 | A2 d4 d2 | f4 _e4 | d6 c2- | c2 d3 c c2- | c2 B2 c4- | c8 |] %69
w: _ pin- *|ga, ve- ra fe-|de a- mor|ve- ro'et|dol- ce|_ fo- * *|* * co.|_|
V:2
 z8 | z4 G4 | G2 G2 A4 | G6 c2 | B2 A2 B4- | B4 A2 D2 | E2 E2 F2 F2 | B4 A2 d2 | d2 d2 ^c2 d2 | %9
w: |Quan-|to piu m'ar-|de, quan-|to piu m'ar-|* de, et|piu s'ac- cend' il|fo- co, et|piu s'ac- cend' il|
 A4 B4 | z2 A2 A2 A2 | B4 A4 | z2 G2 A2 A2 | BG c3 B/A/ B2 | c2 G2 A2 c2 | c2 B2 c2 B2 | %16
w: fo- co,|don- na per|vo- i|piu mi gra-|diss' _ a- * * mo-|re, ne me do-|glia'il do- lo- *|
 A2 d2 d2 c2 | d2 B4 A2 | B3 A G2 A2- | A2 GF E2 F2- | F2 E2 F4 | z2 B2 A2 B2 | G2 G2 B4 | %23
w: re, che dol- ce|me'l _ mo-|rir, _ _ la|_ _ _ pen' un|_ gio- co,|che dol- ce|m'el mo- rir|
 A2 A2 A2 B2 | G2 A4 GF | E8 || z2 G4 D2 | E2 F4 E2 | F3 E D4 | C2 F4 D2 | E2 G4 F2 | G4 z2 B2 | %32
w: la pen' un gio-||co.|Non e|giac- cio'il mio|giac- * *|cio ne la|fiam- ma co-|ce, nel|
 A2 A2 G2 B2 | G3 A B2 B2 | A2 F2 F2 F2 | D2 G2 F2 D2 | F2 G2 z2 G2 | F2 E2 F2 G2 | E4 F2 D2 | %39
w: do- lor du- ol,|nel _ _ do-|lor du- ol ne|la mor- te m'an-|ci- de, tant'|e so- a- v'il|lac- cio, in|
 C2 G2 A2 D2- | DEFG AB c2 | d2 D2 D2 F2 | F2 A2 G4 | F2 D2 D2 D2 | F6 G2 | E2 F2 D3 E | FG A4 B2 | %47
w: lac- * * *||cio, et si dol-|ce mi co-|ce, che non an-|che la|vi- * * *|* * ta an-|
 A2 B4 AG |"^b" F2 D2 E4 | D2 A2 A2 D2 | E2 G2 F3 E | D2 A2 A2 A2 | D2 E2 F2 E2 | E2 E2 D2 G2- | %54
w: zi gli'ar- * *|ri- * *|de, on de ne|se- ge'a- mor, _|_ on- de ne|se- ge'a- mor, che|me ne sfi- *|
 G2 ^F2 G2 D2 | E2 F2 G4 | F4 z2 E2 | F4 E4 | z2 G2 A2 D2 | F4 G2 B2 | B2 A2 B3 A | G2 A4 GF | %62
w: * * de, che|m'a- gia- cia|_ in-|fiam- me|an- ci- d'e|strin- ga, et|nel mio cor de-|pin- * ga _|
 E2 F4 E2 | F4 z2 B2 | A2 B2 G2 G2 | B4 A2 A2 | A2 B2 G2 A2- | A2 GF E4- | E8 |] %69
w: ve- ra fe-|de ve-|ra fe- de a-|mor ve- ro|st dol- ce fo-|* * * co.|_|
V:3
 z8 | z8 | z8 | C,4 C,2 C,2 | D,4 G,,2 G,2 | G,2 G,2 A,4 | G,2 C,2 D,2 D,2 | G,4 D,4 | %8
w: |||Quan- to piu|m'ar- de, quan-|to piu m'ar-|de, et piu s'ac-|cend' il|
 B,4 A,2 D,2 | D,2 D,2 G,4 | D,2 D,2 F,2 F,2 | B,,2 B,,2 z2 D,2 | E,2 E,2 F,2 F,2 | B,,2 A,,2 D,4 | %14
w: fo- co, don-|na per vo-|i, don- na per|vo- i, piu|mi gra- diss' a-|mo- * *|
 C,2 _E,2 D,2 C,2 | D,2 D,2 C,2 G,,2 | D,4 _E,4 | D,2 G,4 F,2 |"^-natural" G,3 F, E,2 F,2 | %19
w: re, ne me do-|glia'il do- lo- re,|che m'el|mo- rir la|pen' _ _ un|
 D,4 C,2 F,,G,, | A,,B,, C,2 A,,2 B,,2 | G,,4 F,,2 B,,2 | C,2 C,2 G,,2 G,,2 | D,2 F,2 F,2 D,2 | %24
w: gio- * * *||* co, che|dol- ce m'el mo-|rir le pen' un|
 E,2 F,2 D,4 | C,8 || C,4 G,,2 B,,2 | C,2 F,,G,, A,,B,, C,2 | F,,4 G,,4 | z8 | z2 G,,2 D,4 | %31
w: gio- * *|co.|Non e giac-|cio'il mio _ _ _ _|giac- cio,||ne la|
 _E,4 D,2 G,2- | G,2 F,2 G,2 G,,2 | C,2 C,2 G,,A,,B,,C, | D,6 D,2 | G,,2 G,,2 B,,3 C, | %36
w: fiam ma co-|* * ce, nel|do- lor duol _ _ _|_ ne|la moe- te m'an-|
 D,2 C,2 B,,2 G,,2 | A,,4 D,2 G,,2 | C,4 F,,2 F,2- | F,2 E,2 F,4 | B,,4 z2 C,2 | B,,6 A,,2 | %42
w: ci- * * *|* de, tant'|e so- a-|* v'il lac-|cio, et|se dol-|
 B,,2 F,,2 C,4 | F,,2 B,,2 B,,2 B,,2 | A,,2 B,,4 G,,2 | C,2 F,,2 G,,A,,B,,C, | D,3 E, F,2 G,2 | %47
w: ce mi co-|ce, che non an-|* che la|vi- * * * * *|* * * ta,|
 z2 G,,2 G,,2 G,,2 | D,2 B,,2 C,4 | B,,2 F,,2 F,,2 B,,2 | A,,2 G,,2 B,,4 | z2 F,2 F,2 F,2 | %52
w: an- zi gli'ar-|ri- * *|de, on- de ne|se- ge'a- mor|on- de ne|
 B,,2 C,2 F,,2 C,2 | C,2 C,2 B,,2 G,,2 | D,4 G,,4 | z4 z2 G,,2 | A,,2 B,,2 C,4 | F,,4 z2 A,,2 | %58
w: se- ge'a- mor, che|me ne sfi- *|* de,|che|m'ag- gia- *|cia, in|
 B,,2 G,,2 F,,2 B,,2- | B,,2 A,,2 G,,2 G,2 | G,2 F,2 G,3 F, |"^b" E,2 F,2 D,2 D,2 | %62
w: fiam- me'an- ci- d'e|_ strin- ga et|nel mio cor de-|pin- ga, ve- ra|
 C,2 F,,G,, A,,B,, C,2 | A,,2 B,,2 G,,4 | F,,2 B,,2 C,4 | G,,2 G,,2 D,2 F,2- | F,2 D,2 E,2 F,2 | %67
w: fe- * * * * *||de, a- mor|ve- ro, et dol-|* ce fo- *|
 D,4 C,4- | C,8 |] %69
w: * co.|_|

